icons/svg/google-glass.svg

﻿<?xml version="1.0" encoding="utf-8"?>
<!DOCTYPE svg PUBLIC "-//W3C//DTD SVG 1.1//EN" "http://www.w3.org/Graphics/SVG/1.1/DTD/svg11.dtd">
<svg xmlns="http://www.w3.org/2000/svg" xmlns:xlink="http://www.w3.org/1999/xlink" version="1.1" baseProfile="full" width="24" height="24" viewBox="0 0 24.00 24.00" enable-background="new 0 0 24.00 24.00" xml:space="preserve">
	<path fill="#000000" fill-opacity="1" stroke-width="0.2" stroke-linejoin="round" d="M 12.9994,10.9981L 12.9994,13.4981L 18.8684,13.4981C 18.2554,17.0051 15.5074,19.4981 11.9994,19.4981C 7.8634,19.4981 4.4994,16.1341 4.4994,11.9981C 4.4994,7.86208 7.8634,4.49807 11.9994,4.49807C 14.0864,4.49807 15.8994,5.38607 17.1594,6.83907L 18.9344,5.06307C 17.2434,3.17608 14.8264,1.99807 11.9994,1.99807C 6.4764,1.99807 1.9994,6.47506 1.9994,11.9981C 1.9994,17.5211 6.4764,21.9981 11.9994,21.9981C 17.5214,21.9981 21.4994,17.5211 21.4994,11.9981L 21.4994,10.9981L 12.9994,10.9981 Z "/>
</svg>

<svg xmlns="http://www.w3.org/2000/svg" version="1.1" baseProfile="full" width="24" height="24" viewBox="0 0 24.00 24.00" xml:space="preserve"><path fill="#000" fill-opacity="1" stroke-width=".2" stroke-linejoin="round" d="M13 10.998v2.5h5.868c-.613 3.507-3.36 6-6.87 6-4.135 0-7.5-3.364-7.5-7.5s3.365-7.5 7.5-7.5c2.088 0 3.9.888 5.16 2.34l1.776-1.775C17.244 3.176 14.826 1.998 12 1.998c-5.524 0-10 4.477-10 10s4.476 10 10 10c5.52 0 9.5-4.477 9.5-10v-1H13z"/></svg>
